X:1
T:To Victory
T:To Victory
T:Charles Austin Miles
T:Frances Jane (Fanny) Crosby, 1900
T:Public Domain Courtesy of the Cyber Hymnal™
C:Charles Austin Miles
Z:Public Domain
Z:Courtesy of the Cyber Hymnal™
%%score ( 1 2 ) ( 3 4 )
L:1/8
Q:1/4=90
M:4/4
K:G
V:1 treble 
V:2 treble 
V:3 bass 
V:4 bass 
V:1
 D | [DB]>[DB] [CA][CA] [B,G][B,G][B,D][B,D] | [CE][EG] [EG]>[_EA] [DB]3 [GB] | %3
w: 1.~With|shield and ban- ner wav- ing bright, The|ar- mies of the Lord Are|
w: 2.~Tho’|sin’s dark host a- gainst them rise, In|dread and stern ar- ray, They|
w: 3.~Thro’|dan- gers wild and per- ils deep Their|path to glo- ry lies; But|
w: 4.~O|morn of light, O day of peace, When|life’s great bat- tle’s won, With-|
 [FA]>[FA] [FA][GB] [FA][EG][DF][FA] | [GB]>[Gd] [Gd][G^c] [Fd]3 ||"^Refrain" [Fd] | %6
w: march- ing on, at His com- mand, To|con- quer thro’ His Word.||
w: trust in Him whose might- y arm To|vic- t’ry leads the way.|To|
w: faith be- holds their prom- ised crown Of|tri- umph in the skies.||
w: in the roy- al ci- ty gates The|King shall say, “Well done.”||
 [Gd]>[GB] [GB][Gd] [Gd]>[GB] [GB][Gd] | [Ge][Gd][Fc][GB] [FA]3 D | %8
w: ||
w: vic- to- ry, to vic- to- ry, O|hear them shout and sing; To|
w: ||
w: ||
 [DG]>[DG] [DG][DA] !>![GB]!>![Gc]!>!!fermata![Gd][Ge] | [Gd]>"^riten."[GB] [FB][FA] [DG]3 |] %10
w: ||
w: vic- to- ry, to vic- to- ry, For|Christ, the Lord, our king.|
w: ||
w: ||
V:2
 D | x8 | x8 | x8 | x7 || x | x8 | x7 D | x8 | x7 |] %10
V:3
 D, | [G,,G,]>[G,,G,] [G,,G,][G,,G,] [G,,G,][G,,G,][G,,G,][G,,G,] | %2
 [C,G,][C,C] [C,C]>[C,G,] [G,,G,]3 [G,D] | [D,D]>[D,D] [D,D][D,D] [D,D][D,A,][D,A,][D,D] | %4
 [G,D]>[G,B,] [A,E][A,E] [D,D]3 || [D,C] | [G,B,]>[G,D] [G,D][G,B,] [G,B,]>[G,D] [G,D][G,B,] | %7
 C[B,D][A,D][G,D] [D,D]3 [D,C] | %8
 [G,,B,]>[G,B,] [G,B,][G,C] !>![G,D]!>![G,A,]!>!!fermata![G,B,][C,C] | %9
 [D,B,]>[D,D] [D,D][D,C] [G,,B,]3 |] %10
V:4
 D, | x8 | x8 | x8 | x7 || x | x8 | C x7 | x8 | x7 |] %10

